!! Isochronous pitch passage.
!! Inner-voice line.
!! From J.S. Bach, Orchestral Suite No. 1, "Forlane" movement, measure 10ff.
!! viola
!! 6/4 meter
**kern	**metpos
*M6/4	*M6/4
*tb8	*tb8
=10	=10
8d	1
8c	4
8d	3
8e	4
8f	3
8e	4
8d	2
8c	4
8d	3
8e	4
8d	3
8c	4
=11	=11
8B	1
8G#	4
8A	3
8B	4
8c	3
8d	4
8e	2
8d	4
8e	3
8f#	4
8g#	3
8e	4
=12	=12
8A	1
8a	4
8gn	3
8f	4
8e	3
8d	4
8e	2
8d	4
8e	3
8f	4
8g	3
8a	4
=13	=13
8b-	1
8cc	4
8b-	3
8a	4
8g	3
8a	4
8b-	2
8a	4
8b-	3
8cc	4
8dd	3
8cc	4
=14	=14
8b-	1
8cc	4
8b-	3
8a	4
8g	3
8f	4
8e	2
8d	4
8c#	3
8Bn	4
8A	3
8e	4
=15	=15
8f	1
8c#	4
8d	3
8e	4
8f	3
8g	4
8a	2
8b-	4
8a	3
8g	4
8f	3
8e	4
=16	=16
8d	1
8c#	4
8d	3
8e	4
8f	3
8e	4
8d	2
8c#	4
8d	3
8e	4
8d	3
8cn	4
=17	=17
8B	1
8A	4
8G	3
8A	4
8B	3
8c	4
8d	2
8e	4
8f	3
8e	4
8d	3
8c	4
=18	=18
8d	1
8e	4
8f	3
8e	4
8d	3
8c	4
8d	2
8a	4
8g	3
8f	4
8e	3
8d	4
=19	=19
8e	1
8f	4
8e	3
8d	4
8c	3
8d	4
8e	2
8f	4
8g	3
8f	4
8e	3
8g	4
=20	=20
*-	*-
